X: 20585
T: John O'Dwyer Of The Glen
R: hornpipe
M: 4/4
K: Adorian
|:d>e|f>ef>g a>ba>g|f>ge>^c d>cd>e|f>de>d c>BA>B|
c>Bc>d e>dc>e|d>cA>F G2 G>B|A2 A2 A2:|
|:A>B|c>BA>B c>de>f|g2 f>g a2 a>g|a>ba>g f2 e>d|
f>ef>g a>ba>g|f>ge>^c d>ed>=c|A2 A2 A2 d>e|
f2 f>g a2 a>g|f>ge>^c d2 d>=c|A>BA>G A2 A>B|
c2 c>d e2 ^c>e|d2 (3cAF G2 G>B|A2 (3AAA A2:|

